X: 204
T:Boston Burglar
R:waltz
Z:added by Alf warnock alf0@rogers.com - www.alfwarnock.info/alfs
M:3/4
L:1/8
K:C
GG|"C"e4 e2|"Dm"f4 g2|"Em"e6|"G7"d4 G2|\
"C"c4 d2|"Am"e2 c2 A2|"C"G6-|G4 E2|
"F"F4 A2|"G7"B4 A2|"C"G4 c2|c4 d2|\
"C"e4 g2|"Dm"f4 e2|"G7"d6-|d4 G2|
"C"e4 e2|"Dm"f4 g2|"Em"e6|"G7"d4 G2|\
"C"c4 d2|"Am"e2 c2 A2|"C"G6-|G4 E2|
"F"F4 A2|"G7"B4 A2|"C"G4 c2|"Am"e2 d2 e2|\
"F"f4 d2|"G7"B2 c2 d2|"C"c6-|c6|

